icons/outline/ruler-measure.svg

<!--
tags: [maths, dimensions, size, width, length, geometry, measure, technical, distance]
version: "1.78"
unicode: "f291"
category: Design
-->
<svg
  xmlns="http://www.w3.org/2000/svg"
  width="24"
  height="24"
  viewBox="0 0 24 24"
  fill="none"
  stroke="currentColor"
  stroke-width="2"
  stroke-linecap="round"
  stroke-linejoin="round"
>
  <path d="M19.875 12c.621 0 1.125 .512 1.125 1.143v5.714c0 .631 -.504 1.143 -1.125 1.143h-15.875a1 1 0 0 1 -1 -1v-5.857c0 -.631 .504 -1.143 1.125 -1.143h15.75zm-10.875 0v2m-3 -2v3m6 -3v3m6 -3v3m-3 -3v2m-12 -11v4m0 -2h18m0 -2v4" />
</svg>

<!--
tags: [maths, dimensions, size, width, length, geometry, measure, technical, distance]
version: "1.78"
unicode: "f291"
category: Design
-->
<svg
  xmlns="http://www.w3.org/2000/svg"
  width="24"
  height="24"
  viewBox="0 0 24 24"
  fill="none"
  stroke="currentColor"
  stroke-width="2"
  stroke-linecap="round"
  stroke-linejoin="round"
>
    <path d="M19.875 12c.621 0 1.125 .512 1.125 1.143v5.714c0 .631 -.504 1.143 -1.125 1.143h-15.875a1 1 0 0 1 -1 -1v-5.857c0 -.631 .504 -1.143 1.125 -1.143h15.75zM9 12v2M6 12v3M12 12v3M18 12v3M15 12v2M3 3v4M3 5h18M21 3v4" />
</svg>
